!!!SOCIAL_FUNCTION:	songs of the alo'wanpi ceremony
!!!PDT:	1918

Specific Region: Dakotas, Minnesota, Montana, Nebraska
!!!REG: Dakotas and Montana
!!!LING_GROUP: Siouan
!!!LANG: Tone
!!!OTL@ENG: Ceremonial Song
!!!ONM: No. 3
**kern
*Imale
*clefF4
*k[b-e-a-]
*M3/4
*>[A,A]
*>norep[A]
*>A
=!|:
*MM52
8.c
16c
=1
(16c
8.G)
8G
8G
(16G
8F)
16E-
=2
8G
8G
8G
8G
(16G
8F
16E-)
=3
8E-
8E-
8E-
8E-
8.E-
16C
=4
8E-
8E-
8E-
8E-
8E-
8E-
=5
8G
8G
8E-
8C
8.E-
16E-
=6
8E-
8E-
8E-
8E-
8.E-
16C
=7
2C
==:|!
*-
!!!CNT: Native American -- Sioux
!!!MRD: 1911/07//-1914///
!!!OCL: Frances Densmore
!!!YOR1: Teton Sioux Music, Bulletin 61,
!!!YOR2: Bureau of American Ethnology, Smithsonian Institution
!!!PPR: Government Printing Office
!!!PPP: Washington, D.C.
!!!PDT: 1918///
!!!ENC: Craig Stuart Sapp
!!!END: 2002/03/25/
!!!EEV: 2002/03/31/
!!!AGN: Song of the Alowangpi Ceremony
!!!MPN@@SIO: Itung'-kasang-mato'
!!!MPN@ENG: Weasel Bear
!!!TXO: Teton Sioux
!!!MLC: Standing Rock Reservation, South Dakota, United States of America
!!!ARL: 45.9/-100.7#
!!!catalog: Catalogue No. 648
!!!PPG: 75
!!!EFL: 3/245
!!!VTS: 3429111543
